storage/app/icons/phosphoricons/bold/quotes-bold.svg

<svg xmlns="http://www.w3.org/2000/svg" fill="currentColor" viewBox="0 0 256 256"><path d="M100 52H40a20 20 0 0 0-20 20v64a20 20 0 0 0 20 20h56v4a28 28 0 0 1-28 28 12 12 0 0 0 0 24 52.06 52.06 0 0 0 52-52V72a20 20 0 0 0-20-20m-4 80H44V76h52Zm120-80h-60a20 20 0 0 0-20 20v64a20 20 0 0 0 20 20h56v4a28 28 0 0 1-28 28 12 12 0 0 0 0 24 52.06 52.06 0 0 0 52-52V72a20 20 0 0 0-20-20m-4 80h-52V76h52Z"/></svg>

<svg xmlns="http://www.w3.org/2000/svg" viewBox="0 0 256 256" fill="currentColor"><path d="M100,52H40A20,20,0,0,0,20,72v64a20,20,0,0,0,20,20H96v4a28,28,0,0,1-28,28,12,12,0,0,0,0,24,52.06,52.06,0,0,0,52-52V72A20,20,0,0,0,100,52Zm-4,80H44V76H96ZM216,52H156a20,20,0,0,0-20,20v64a20,20,0,0,0,20,20h56v4a28,28,0,0,1-28,28,12,12,0,0,0,0,24,52.06,52.06,0,0,0,52-52V72A20,20,0,0,0,216,52Zm-4,80H160V76h52Z"/></svg>
